svg/Account/log-out.svg

<svg xmlns="http://www.w3.org/2000/svg" width="24" height="24" viewBox="0 0 24 24">
	<g fill="none" stroke="currentColor" stroke-width="2" stroke-linecap="round">
		<path d="M16 5V4C16 3.44772 15.5523 3 15 3H6C5.44771 3 5 3.44772 5 4V20C5 20.5523 5.44772 21 6 21H15C15.5523 21 16 20.5523 16 20V19" stroke-dasharray="46" stroke-dashoffset="46">
			<animate attributeName="stroke-dashoffset" values="46;0" dur="0.5s" fill="freeze" />
		</path>
		<path d="M10 12h11" stroke-dasharray="12" stroke-dashoffset="12" opacity="0">
			<set attributeName="opacity" to="1" begin="0.6s" />
			<animate attributeName="stroke-dashoffset" values="12;0" begin="0.6s" dur="0.2s" fill="freeze" />
		</path>
		<path d="M21 12l-3.5 -3.5M21 12l-3.5 3.5" stroke-dasharray="6" stroke-dashoffset="6" opacity="0">
			<set attributeName="opacity" to="1" begin="0.8s" />
			<animate attributeName="stroke-dashoffset" values="6;0" begin="0.8s" dur="0.2s" fill="freeze" />
		</path>
	</g>
</svg>

<svg xmlns="http://www.w3.org/2000/svg" width="24" height="24" viewBox="0 0 24 24">
	<g fill="none" stroke="currentColor" stroke-width="2" stroke-linecap="round" stroke-linejoin="round">
		<path d="M16 5v-1c0 -0.55 -0.45 -1 -1 -1h-9c-0.55 0 -1 0.45 -1 1v16c0 0.55 0.45 1 1 1h9c0.55 0 1 -0.45 1 -1v-1" stroke-dasharray="48" stroke-dashoffset="48">
			<animate attributeName="stroke-dashoffset" values="48;0" dur="0.6s" fill="freeze" />
		</path>
		<path d="M10 12h11" stroke-dasharray="12" stroke-dashoffset="12">
			<animate attributeName="stroke-dashoffset" values="12;0" begin="0.7s" dur="0.2s" fill="freeze" />
		</path>
		<path d="M21 12l-3.5 -3.5M21 12l-3.5 3.5" stroke-dasharray="8" stroke-dashoffset="8">
			<animate attributeName="stroke-dashoffset" values="8;0" begin="0.9s" dur="0.2s" fill="freeze" />
		</path>
	</g>
</svg>
